icons/Communication/chat-private-fill.svg

<svg viewBox="0 0 24 24" xmlns="http://www.w3.org/2000/svg"><path d="M12 2C17.5228 2 22 6.47715 22 12C22 17.5228 17.5228 22 12 22C10.298 22 8.69525 21.5748 7.29229 20.8248L2 22L3.17629 16.7097C2.42562 15.3063 2 13.7028 2 12C2 6.47715 6.47715 2 12 2ZM12 7C10.4023 7 9 8.34 9 10V11H8V16H16V11H15V10C15 8.34315 13.6569 7 12 7ZM14 13V14H10V13H14ZM12 9C12.4762 9 13 9.49 13 10V11H11V10C11 9.49 11.4872 9 12 9Z"/></svg>

<svg xmlns="http://www.w3.org/2000/svg" viewBox="0 0 24 24">
    <g>
        <path fill="none" d="M0 0L24 0 24 24 0 24z"/>
        <path d="M12 2c5.523 0 10 4.477 10 10s-4.477 10-10 10c-1.702 0-3.305-.425-4.708-1.175L2 22l1.176-5.29C2.426 15.306 2 13.703 2 12 2 6.477 6.477 2 12 2zm0 5c-1.598 0-3 1.34-3 3v1H8v5h8v-5h-1v-1c0-1.657-1.343-3-3-3zm2 6v1h-4v-1h4zm-2-4c.476 0 1 .49 1 1v1h-2v-1c0-.51.487-1 1-1z"/>
    </g>
</svg>
